img/recomendation/11.svg

<svg width="44" height="44" viewBox="0 0 44 44" fill="none" xmlns="http://www.w3.org/2000/svg">
<g id="healthicons:cleaning">
<g id="Group">
<path id="Vector" d="M25.8189 24.9454L19.9379 28.0724L19.8141 27.8394L19.8139 27.839C19.7625 27.7423 19.7307 27.6365 19.7202 27.5276C19.7097 27.4186 19.7208 27.3087 19.7528 27.204C19.7848 27.0994 19.8371 27.0021 19.9067 26.9176C19.9763 26.8332 20.0619 26.7633 20.1585 26.7119C20.1585 26.7119 20.1585 26.7119 20.1585 26.7119L24.5676 24.368L24.5678 24.3679C24.6644 24.3165 24.7702 24.2847 24.8792 24.2742C24.9881 24.2637 25.098 24.2748 25.2027 24.3067C25.3073 24.3387 25.4047 24.391 25.4891 24.4607C25.5736 24.5303 25.6435 24.6158 25.6949 24.7125L25.6952 24.7131L25.8189 24.9454ZM26.7951 39.2586L26.7946 39.2576L27.5486 38.8568L35.5585 34.5989L36.5452 34.0744L35.9147 33.1517L29.6485 23.9814L29.0807 22.9131C28.7931 22.3718 28.4017 21.8925 27.9288 21.5026C27.4559 21.1126 26.9109 20.8196 26.3248 20.6403C25.7387 20.461 25.123 20.3989 24.5129 20.4576C23.9028 20.5163 23.3102 20.6945 22.769 20.9823L22.7686 20.9825L22.2566 21.255L12.8876 3.63443L12.8876 3.63443C12.7694 3.41219 12.6087 3.21539 12.4144 3.05529C12.2202 2.89518 11.9964 2.7749 11.7556 2.70131C11.2695 2.55268 10.7442 2.60326 10.2954 2.84191C9.84656 3.08057 9.51091 3.48775 9.36228 3.97388C9.28869 4.21459 9.26323 4.46744 9.28735 4.71799C9.31148 4.96852 9.38471 5.21185 9.50287 5.43409C9.50287 5.4341 9.50288 5.43411 9.50289 5.43412L18.8712 23.0551L18.3598 23.3271C18.3598 23.3271 18.3597 23.3272 18.3597 23.3272C17.8186 23.6149 17.3394 24.0063 16.9496 24.4792C16.5598 24.9521 16.2669 25.4971 16.0877 26.0832C15.9085 26.6693 15.8465 27.285 15.9053 27.8951C15.964 28.505 16.1423 29.0973 16.4299 29.6384C16.43 29.6385 16.4301 29.6386 16.4302 29.6388L16.9971 30.7061L21.0972 41.0297L21.5095 42.0679L22.4959 41.5436L25.9297 39.7185L26.7951 39.2586Z" fill="#13023E" stroke="#13023E" stroke-width="2"/>
<path id="Vector_2" d="M11.2873 32.4135C11.1318 32.2268 10.9085 32.1094 10.6665 32.0872C10.4245 32.065 10.1835 32.1399 9.99667 32.2953H9.9985L9.98842 32.3026L9.93067 32.3466C9.84864 32.4083 9.76488 32.4676 9.6795 32.5245C9.45217 32.6757 9.113 32.882 8.67667 33.0891C7.55512 33.6282 6.32768 33.9109 5.08333 33.9169C4.84022 33.9169 4.60706 34.0135 4.43515 34.1854C4.26325 34.3573 4.16667 34.5904 4.16667 34.8335C4.16667 35.0767 4.26325 35.3098 4.43515 35.4817C4.60706 35.6536 4.84022 35.7502 5.08333 35.7502C6.60042 35.7444 8.09718 35.4009 9.465 34.7446C9.89167 34.5426 10.3034 34.3104 10.697 34.0498C10.8444 33.9512 10.9881 33.8472 11.1278 33.7381L11.1553 33.717L11.1645 33.7097L11.1673 33.706H11.1691L11.17 33.7042C11.3567 33.5486 11.4739 33.3252 11.4959 33.0832C11.5179 32.8411 11.4429 32.6003 11.2873 32.4135ZM13.1793 37.0748C13.2462 37.1749 13.2926 37.2873 13.316 37.4054C13.3394 37.5235 13.3393 37.645 13.3157 37.7631C13.2922 37.8812 13.2456 37.9934 13.1786 38.0935C13.1116 38.1935 13.0256 38.2794 12.9254 38.3462L12.9236 38.348L12.9199 38.3499L12.9108 38.3554L12.8823 38.3737C12.7236 38.4747 12.5626 38.5719 12.3993 38.6652C12.0775 38.8495 11.6201 39.0942 11.0701 39.338C9.98842 39.8193 8.47592 40.3335 6.91667 40.3335C6.67355 40.3335 6.4404 40.237 6.26849 40.0651C6.09658 39.8932 6 39.66 6 39.4169C6 39.1738 6.09658 38.9406 6.26849 38.7687C6.4404 38.5968 6.67355 38.5002 6.91667 38.5002C8.1065 38.5002 9.34583 38.0978 10.3258 37.6624C10.8363 37.4346 11.3317 37.1743 11.8089 36.8832C11.8357 36.8675 11.8619 36.8509 11.8878 36.8337L11.9061 36.8227L11.9079 36.8209C12.0081 36.7541 12.1204 36.7076 12.2385 36.6842C12.3566 36.6608 12.4782 36.6609 12.5962 36.6845C12.7143 36.7081 12.8266 36.7547 12.9266 36.8216C13.0267 36.8886 13.1125 36.9746 13.1793 37.0748Z" fill="#13023E"/>
</g>
</g>
</svg>

<svg width="44" height="44" viewBox="0 0 44 44" fill="none" xmlns="http://www.w3.org/2000/svg"><g id="healthicons:cleaning"><g id="Group" fill="#13023E"><path id="Vector" d="M25.819 24.945l-5.881 3.127-.124-.233h0a.834.834 0 01.345-1.127s0 0 0 0l4.409-2.344h0a.833.833 0 011.127.345h0l.124.232zm.976 14.314v-.001l.754-.401 8.01-4.258.986-.525-.63-.922-6.267-9.17-.567-1.069a4.665 4.665 0 00-6.312-1.93h0l-.512.272-9.37-17.62h0a1.916 1.916 0 10-3.384 1.8l9.368 17.62-.511.272s0 0 0 0a4.666 4.666 0 00-1.93 6.312l.567 1.067 4.1 10.324.412 1.038.987-.524 3.434-1.825.865-.46z" stroke="#13023E" stroke-width="2"/><path id="Vector_2" d="M11.287 32.413a.917.917 0 00-1.29-.118h.002l-.01.008-.058.044a5.396 5.396 0 01-.251.178 8.06 8.06 0 01-1.003.564 8.388 8.388 0 01-3.594.828.917.917 0 000 1.833 10.22 10.22 0 004.382-1.005 9.923 9.923 0 001.232-.695 7.24 7.24 0 00.43-.312l.028-.021.01-.007.002-.004h.002l.001-.002a.916.916 0 00.117-1.29zm1.892 4.662a.915.915 0 01-.254 1.271l-.001.002-.004.002-.01.005-.028.019a14.615 14.615 0 01-1.812.964c-1.082.481-2.594.995-4.153.995a.917.917 0 110-1.833c1.19 0 2.429-.402 3.409-.838a13.094 13.094 0 001.562-.828l.018-.011.002-.002a.918.918 0 011.271.254z"/></g></g></svg>
